X:2340
T:Untitled 
C:Traditional
O:Isle of Man
B:Kiaull Vannin 340 
L:1/8
M:6/8 
Q:160 
K:D 
d|D3 F2A|d3 A3|f2e d2c|d3 A2F|G2A B2B|A3 F2D|E3 ^G2B|A3 A2A| 
D3 F2B|A3 A2A|f2e d2c|d3 A2A|G2A B2c|f3 d2A|B3 e2c|d3-d2f| 
g3 f2f|e3 d3|e2d c2B|ABA GFE|D2D F2A|B3 A3| 
f2e d2c|d3 A2F|G2A B2B|A3 F2D|E3 ^G2 B|A3-A2 A| 
D3 F2 A|d3 A2A|f2e d2c|d3 A2F|G2A B2d|f3 d2A|B3 e2c|d3-d2|| 

